RestoDelMundo/Suiza/Otras Categorias/Fc Dubendorf.svg

<svg xmlns="http://www.w3.org/2000/svg" viewBox="0 0 660 660"><path fill="#f7941d" d="m298.207 70.752-65.074 306.135h64.504l65.07-306.135ZM92.476 598.877h64.499l80.471-378.569h-64.505ZM111.262 70.752l-83.45 392.589h64.504l83.446-392.589Z"/><path d="M219.7 598.886h-34.17l40.433-191.606H342.37l-7.154 33.907h-82.238l-9.101 43.129h71.985l-7.156 33.903H236.72zM451.828 470.04c-.316-11.456-1.005-33.043-29.253-33.043-16.398 0-43.245 12.792-54.66 66.877-7.252 34.372-2.159 65.281 26.772 65.281 18.91 0 34.766-12.525 43.812-35.976h34.172c-15.609 41.58-44.989 70.681-85.992 70.681-43.511 0-67.449-34.441-53.507-100.52 14.113-66.874 54.36-101.05 96.505-101.05 48.976 0 60.455 39.507 56.32 67.749h-34.169zM483.927 598.886h70.871c54.04 0 80.438-59.243 89.11-100.336 7.659-36.295 7.873-91.273-47.302-91.273h-72.242zm66.915-158.516h32.848c14.599 0 36.686 4.537 24.747 61.108-6.646 31.493-22.926 64.318-50.759 64.318H524.37z"/></svg>

<svg enable-background="new 0 0 660 660" viewBox="0 0 660 660" xmlns="http://www.w3.org/2000/svg"><path d="M 298.207 70.752 L 233.133 376.887 L 297.637 376.887 L 362.707 70.752 Z" fill="#f7941d"/><path d="M 92.476 598.877 L 156.975 598.877 L 237.446 220.308 L 172.941 220.308 Z" fill="#f7941d"/><path d="M 111.262 70.752 L 27.812 463.341 L 92.316 463.341 L 175.762 70.752 Z" fill="#f7941d"/><path d="M 219.7 598.886 h -34.17 l 40.433 -191.606 h 116.407 l -7.154 33.907 h -82.238 l -9.101 43.129 h 71.985 l -7.156 33.903 H 236.72 L 219.7 598.886 z"/><path d="M 451.828 470.04 c -.316 -11.456 -1.005 -33.043 -29.253 -33.043 c -16.398 0 -43.245 12.792 -54.66 66.877 c -7.252 34.372 -2.159 65.281 26.772 65.281 c 18.91 0 34.766 -12.525 43.812 -35.976 h 34.172 c -15.609 41.58 -44.989 70.681 -85.992 70.681 c -43.511 0 -67.449 -34.441 -53.507 -100.52 c 14.113 -66.874 54.36 -101.05 96.505 -101.05 c 48.976 0 60.455 39.507 56.32 67.749 H 451.828 z"/><path d="M 483.927 598.886 h 70.871 c 54.04 0 80.438 -59.243 89.11 -100.336 c 7.659 -36.295 7.873 -91.273 -47.302 -91.273 h -72.242 L 483.927 598.886 z M 550.842 440.37 h 32.848 c 14.599 0 36.686 4.537 24.747 61.108 c -6.646 31.493 -22.926 64.318 -50.759 64.318 H 524.37 L 550.842 440.37 z"/></svg>
